lib/typescript/assets/images/icons/link.svg

<svg xmlns="http://www.w3.org/2000/svg" width="24" height="24" viewBox="0 0 24 24">
  <path d="M12.1509114,11.8471512 C11.9561803,11.6513594 11.9570402,11.3347781 12.152832,11.140047 C12.3486238,10.9453159 12.6652051,10.9461758 12.8599362,11.1419675 C14.1569415,12.4460376 14.1552178,14.5533998 12.856081,15.8553464 L10.688307,18.0278091 C9.3951468,19.3237661 7.29827736,19.3325453 5.99431094,18.0474618 C4.69149253,16.763155 4.67648972,14.6664 5.96047544,13.3639073 L8.14392596,11.1489854 C8.33778599,10.9523311 8.65436038,10.9500659 8.85101464,11.143926 C9.0476689,11.337786 9.04993407,11.6543604 8.85607404,11.8510146 L6.67262352,14.0659366 C5.77635786,14.9751207 5.78683033,16.4387269 6.69601444,17.3349926 C7.60857323,18.2343365 9.07566605,18.2281941 9.98043674,17.3214665 L12.1482108,15.1490039 C13.0582922,14.2369541 13.0594996,12.7606885 12.1509114,11.8471512 Z M11.6878673,12.1529632 C11.8825984,12.3487549 11.8817385,12.6653363 11.6859467,12.8600673 C11.4901549,13.0547984 11.1735736,13.0539386 10.9788425,12.8581468 C9.6815949,11.553833 9.68192903,9.44650437 10.9795902,8.14260207 L13.0682259,6.04392106 C14.4153605,4.69030749 16.5980987,4.66396082 17.9775134,5.98466366 C18.0231051,6.02831479 18.0674283,6.07327174 18.1104279,6.11947844 C19.3455559,7.44672946 19.2708754,9.52394808 17.9436244,10.7590761 L15.679401,12.8661422 C15.4772494,13.0542628 15.1608713,13.0428883 14.9727508,12.8407366 C14.7846303,12.638585 14.7960047,12.3222069 14.9981564,12.1340864 L17.2623797,10.0270203 C18.1853275,9.16813328 18.237259,7.72367084 17.378372,6.80072308 C17.3484709,6.76859174 17.3176493,6.73732944 17.2859456,6.70697519 C16.3000074,5.76300139 14.7398929,5.7818327 13.777027,6.74932948 L11.6883913,8.84801049 C10.7789081,9.76186788 10.7786739,11.2388174 11.6878673,12.1529632 Z"/>
</svg>

<svg xmlns="http://www.w3.org/2000/svg" width="24" height="24"><path d="M12.15 11.847a.5.5 0 0 1 .71-.705 3.34 3.34 0 0 1-.004 4.713l-2.168 2.173a3.33 3.33 0 0 1-4.694.02 3.312 3.312 0 0 1-.034-4.684l2.184-2.215a.5.5 0 1 1 .712.702l-2.183 2.215a2.312 2.312 0 0 0 .023 3.269c.913.9 2.38.893 3.284-.014l2.168-2.172a2.34 2.34 0 0 0 .003-3.302zm-.462.306a.5.5 0 1 1-.71.705 3.343 3.343 0 0 1 .002-4.715l2.088-2.1a3.506 3.506 0 0 1 5.042.076 3.283 3.283 0 0 1-.166 4.64l-2.265 2.107a.5.5 0 1 1-.68-.732l2.263-2.107a2.283 2.283 0 0 0 .024-3.32 2.506 2.506 0 0 0-3.509.042l-2.089 2.099c-.91.914-.91 2.39 0 3.305z"/></svg>
